public/img/google.svg

<svg width="118" height="30" viewBox="0 0 118 30" fill="none" xmlns="http://www.w3.org/2000/svg">
<path d="M11.0956 3.75117C11.4107 2.92391 11.844 2.16231 12.4875 1.54515C15.0612 -0.962894 19.3156 -0.332601 21.0621 2.81886C22.3752 5.20872 23.7671 7.54606 25.1196 9.90966C27.3781 13.8359 29.663 17.7621 31.8952 21.7014C33.773 24.9973 31.7377 29.1599 28.0084 29.7245C25.7236 30.0659 23.5833 29.0154 22.4015 26.967C20.4187 23.5135 18.4227 20.06 16.4399 16.6197C16.4005 16.5409 16.348 16.4752 16.2955 16.4096C16.0854 16.2389 15.9935 15.9894 15.8622 15.7661C14.9824 14.2167 14.0763 12.6803 13.1966 11.144C12.6319 10.146 12.041 9.16119 11.4764 8.16322C10.9643 7.27031 10.7279 6.29861 10.7542 5.27438C10.7936 4.74914 10.8592 4.22389 11.0956 3.75117Z" fill="#3C8BD9"/>
<path d="M11.0954 3.7511C10.9772 4.22382 10.8722 4.69654 10.8459 5.19552C10.8065 6.29853 11.0823 7.32276 11.6338 8.28133C13.0782 10.7631 14.5226 13.258 15.9539 15.7529C16.0852 15.9762 16.1903 16.1994 16.3216 16.4095C15.5337 17.7751 14.7459 19.1276 13.9449 20.4933C12.8419 22.3973 11.7388 24.3144 10.6227 26.2184C10.5702 26.2184 10.557 26.1922 10.5439 26.1528C10.5308 26.0477 10.5702 25.9558 10.5964 25.8507C11.1348 23.8811 10.6884 22.1346 9.33585 20.6377C8.50859 19.7317 7.4581 19.2195 6.25004 19.0488C4.67431 18.8256 3.28241 19.2327 2.03495 20.2175C1.81173 20.3882 1.66728 20.6377 1.40466 20.769C1.35214 20.769 1.32588 20.7427 1.31274 20.7034C1.94304 19.6135 2.5602 18.5236 3.19049 17.4337C5.79045 12.9166 8.39041 8.39951 11.0035 3.89554C11.0298 3.84302 11.0692 3.80362 11.0954 3.7511Z" fill="#FABC04"/>
<path d="M1.36534 20.7428C1.61484 20.5195 1.85119 20.2832 2.11382 20.0731C5.30468 17.5519 10.0975 19.3771 10.7935 23.369C10.9642 24.3276 10.8723 25.2467 10.5834 26.1659C10.5702 26.2447 10.5571 26.3104 10.5309 26.3891C10.4127 26.5992 10.3076 26.8225 10.1763 27.0326C9.00765 28.9628 7.28747 29.9214 5.02892 29.777C2.44209 29.5931 0.406774 27.6497 0.0522337 25.076C-0.118471 23.8286 0.13102 22.6599 0.774444 21.5832C0.905756 21.3468 1.06333 21.1367 1.20777 20.9003C1.27343 20.8478 1.24716 20.7428 1.36534 20.7428Z" fill="#34A852"/>
<path d="M1.36548 20.7429C1.31295 20.7954 1.31295 20.8873 1.22103 20.9005C1.2079 20.8085 1.26043 20.756 1.31295 20.6904L1.36548 20.7429Z" fill="#FABC04"/>
<path d="M10.5308 26.3892C10.4783 26.2973 10.5308 26.2317 10.5833 26.166C10.5964 26.1791 10.6227 26.2054 10.6358 26.2185L10.5308 26.3892Z" fill="#E1C025"/>
<path d="M42.8582 9.00269C39.1682 9.00269 36.0986 11.9743 36.0986 15.6317C36.0986 19.2891 39.1682 22.228 42.8582 22.228C44.8502 22.228 46.3197 21.5749 47.4953 20.3667C48.7035 19.1584 49.0627 17.493 49.0627 16.1542C49.0627 15.7296 49.0301 15.3378 48.9648 15.0112H42.8582V16.8073H47.2014C47.0708 17.8196 46.7442 18.5706 46.2217 19.0931C45.6013 19.7136 44.589 20.432 42.8582 20.432C40.1805 20.432 38.0906 18.2767 38.0906 15.6317C38.0906 12.9866 40.1805 10.8314 42.8582 10.8314C44.2951 10.8314 45.3727 11.3865 46.1238 12.1376L47.3973 10.864C46.3197 9.81907 44.8829 9.00269 42.8582 9.00269ZM53.9283 13.7377C51.6098 13.7377 49.6832 15.5337 49.6832 18.0482C49.6832 20.53 51.5772 22.3586 53.9283 22.3586C56.2795 22.3586 58.1735 20.53 58.1735 18.0482C58.1735 15.5664 56.2469 13.7377 53.9283 13.7377ZM53.9283 20.6606C52.6548 20.6606 51.5445 19.583 51.5445 18.0482C51.5445 16.5134 52.6548 15.4358 53.9283 15.4358C55.2019 15.4358 56.3122 16.4807 56.3122 18.0482C56.3122 19.583 55.2019 20.6606 53.9283 20.6606ZM63.1371 13.7377C60.7859 13.7377 58.8919 15.5337 58.8919 18.0482C58.8919 20.53 60.7859 22.3586 63.1371 22.3586C65.4556 22.3586 67.3823 20.53 67.3823 18.0482C67.3823 15.5664 65.4883 13.7377 63.1371 13.7377ZM63.1371 20.6606C61.8635 20.6606 60.7533 19.583 60.7533 18.0482C60.7533 16.5134 61.8635 15.4358 63.1371 15.4358C64.4106 15.4358 65.5209 16.4807 65.5209 18.0482C65.5209 19.583 64.4433 20.6606 63.1371 20.6606ZM72.3132 13.7377C70.1906 13.7377 68.2639 15.599 68.2639 18.0155C68.2639 20.3993 70.1906 22.2607 72.3132 22.2607C73.3255 22.2607 74.1092 21.8035 74.5337 21.281H74.599V21.9015C74.599 23.5342 73.75 24.4159 72.3458 24.4159C71.2029 24.4159 70.5171 23.5995 70.2232 22.9138L68.5905 23.5995C69.0477 24.7425 70.2886 26.114 72.3458 26.114C74.5337 26.114 76.3624 24.8078 76.3624 21.6729V14.0316H74.599V14.7173H74.5337C74.1092 14.1949 73.3255 13.7377 72.3132 13.7377ZM72.4765 20.5953C71.2029 20.5953 70.1253 19.5176 70.1253 18.0155C70.1253 16.5134 71.2029 15.4031 72.4765 15.4031C73.75 15.4031 74.7297 16.5134 74.7297 18.0155C74.7297 19.5176 73.75 20.5953 72.4765 20.5953ZM77.7339 9.52517H79.5953V22.1301H77.7339V9.52517ZM84.5915 13.7377C82.371 13.7377 80.5096 15.4684 80.5096 18.0482C80.5096 20.4646 82.3383 22.3586 84.7874 22.3586C86.7794 22.3586 87.9223 21.1504 88.3795 20.4646L86.91 19.485C86.4202 20.2034 85.7344 20.6606 84.7874 20.6606C83.8078 20.6606 83.122 20.2361 82.6975 19.3544L88.4775 16.9705L88.2815 16.4807C87.9223 15.5337 86.8121 13.7377 84.5915 13.7377ZM82.371 17.9175C82.3056 16.2521 83.6772 15.4031 84.6242 15.4031C85.3752 15.4031 86.0283 15.7623 86.2243 16.3174L82.371 17.9175Z" fill="white"/>
<path d="M91.7432 21.9342L96.0536 10.4722H97.7191L102.03 21.9342H100.397L99.2865 18.8319H94.4862L93.3759 21.9342H91.7432ZM94.976 17.4604H98.7967L96.9353 12.3009H96.87L94.976 17.4604Z" fill="white"/>
<path d="M103.532 20.9872C102.813 20.1708 102.454 19.1912 102.454 18.0156C102.454 16.8726 102.813 15.893 103.532 15.0439C104.283 14.2276 105.132 13.8357 106.177 13.8357C106.765 13.8357 107.287 13.9663 107.744 14.1949C108.234 14.4562 108.593 14.75 108.855 15.1746H108.92L108.855 14.097V10.4722H110.324V21.9342H108.92V20.8566H108.855C108.593 21.2484 108.234 21.575 107.744 21.8362C107.254 22.0975 106.732 22.1954 106.177 22.1954C105.132 22.1954 104.25 21.8036 103.532 20.9872ZM108.169 20.0728C108.659 19.5504 108.887 18.8646 108.887 18.0156C108.887 17.1992 108.659 16.5134 108.169 15.9909C107.712 15.4685 107.124 15.2072 106.405 15.2072C105.687 15.2072 105.099 15.4685 104.642 15.9909C104.152 16.5134 103.924 17.1992 103.924 18.0156C103.924 18.8319 104.152 19.5177 104.642 20.0402C105.132 20.5627 105.72 20.8239 106.405 20.8239C107.124 20.8566 107.712 20.5953 108.169 20.0728Z" fill="white"/>
<path d="M117.116 21.4769C116.528 21.9341 115.777 22.1953 114.863 22.1953C114.079 22.1953 113.393 21.9994 112.773 21.5749C112.185 21.1504 111.761 20.6279 111.499 19.9421L112.805 19.387C113.001 19.8442 113.263 20.236 113.655 20.4973C114.014 20.7585 114.438 20.8891 114.863 20.8891C115.32 20.8891 115.712 20.7912 116.038 20.5952C116.365 20.3993 116.496 20.1381 116.496 19.8768C116.496 19.387 116.104 18.9951 115.353 18.7665L114.014 18.44C112.479 18.0481 111.728 17.3297 111.728 16.2195C111.728 15.501 112.022 14.9459 112.61 14.4887C113.197 14.0642 113.948 13.8356 114.83 13.8356C115.516 13.8356 116.136 13.9989 116.724 14.3255C117.279 14.652 117.671 15.1092 117.9 15.6643L116.593 16.2195C116.43 15.8929 116.202 15.6317 115.875 15.4357C115.549 15.2398 115.157 15.1418 114.732 15.1418C114.34 15.1418 114.014 15.2398 113.687 15.4357C113.393 15.6317 113.23 15.8602 113.23 16.1541C113.23 16.6113 113.655 16.9379 114.504 17.1011L115.679 17.395C117.247 17.7869 117.998 18.5706 117.998 19.7462C118.03 20.432 117.704 21.0198 117.116 21.4769Z" fill="white"/>
</svg>

<svg xmlns="http://www.w3.org/2000/svg" width="118" height="30" fill="none" viewBox="0 0 118 30"><path fill="#3c8bd9" d="M11.096 3.751c.315-.827.748-1.589 1.392-2.206C15.06-.963 19.316-.333 21.062 2.82c1.313 2.39 2.705 4.727 4.058 7.09 2.258 3.927 4.543 7.853 6.775 11.792 1.878 3.296-.157 7.459-3.887 8.023-2.284.342-4.425-.709-5.607-2.757-1.982-3.453-3.978-6.907-5.961-10.347a1.2 1.2 0 0 0-.145-.21c-.21-.171-.302-.42-.433-.644-.88-1.55-1.786-3.086-2.665-4.622-.565-.998-1.156-1.983-1.72-2.98a5.44 5.44 0 0 1-.723-2.89c.04-.525.105-1.05.342-1.523"/><path fill="#fabc04" d="M11.095 3.751c-.118.473-.223.946-.25 1.445-.039 1.103.237 2.127.789 3.085 1.444 2.482 2.889 4.977 4.32 7.472.131.223.236.446.368.657a660 660 0 0 1-2.377 4.083c-1.103 1.904-2.206 3.821-3.322 5.725-.053 0-.066-.026-.08-.065-.012-.105.027-.197.053-.302.539-1.97.092-3.716-1.26-5.213-.827-.906-1.878-1.419-3.086-1.59-1.576-.222-2.968.185-4.215 1.17-.223.17-.368.42-.63.551-.053 0-.08-.026-.092-.066.63-1.09 1.247-2.18 1.877-3.27 2.6-4.516 5.2-9.033 7.814-13.537.026-.053.065-.092.091-.145"/><path fill="#34a852" d="M1.365 20.743c.25-.223.486-.46.749-.67 3.19-2.521 7.983-.696 8.68 3.296.17.959.078 1.878-.21 2.797a1.4 1.4 0 0 1-.053.223c-.118.21-.223.434-.355.644-1.168 1.93-2.889 2.888-5.147 2.744C2.442 29.593.407 27.65.052 25.076a5.26 5.26 0 0 1 .722-3.493c.132-.236.29-.446.434-.683.065-.052.04-.157.157-.157"/><path fill="#fabc04" d="M1.365 20.743c-.052.052-.052.144-.144.158-.013-.093.04-.145.092-.21z"/><path fill="#e1c025" d="M10.53 26.39c-.052-.093 0-.158.053-.224l.053.052z"/><path fill="#fff" d="M42.858 9.003c-3.69 0-6.76 2.971-6.76 6.629s3.07 6.596 6.76 6.596c1.992 0 3.462-.653 4.637-1.861 1.209-1.209 1.568-2.874 1.568-4.213 0-.424-.033-.816-.098-1.143h-6.107v1.796h4.343c-.13 1.013-.457 1.764-.98 2.286-.62.62-1.632 1.339-3.363 1.339-2.677 0-4.767-2.155-4.767-4.8s2.09-4.8 4.767-4.8c1.437 0 2.515.554 3.266 1.306l1.273-1.274c-1.077-1.045-2.514-1.861-4.539-1.861m11.07 4.735c-2.318 0-4.245 1.796-4.245 4.31 0 2.482 1.894 4.31 4.245 4.31s4.246-1.828 4.246-4.31-1.927-4.31-4.246-4.31m0 6.923c-1.273 0-2.383-1.078-2.383-2.613s1.11-2.612 2.383-2.612c1.274 0 2.384 1.045 2.384 2.612 0 1.535-1.11 2.613-2.384 2.613m9.21-6.923c-2.352 0-4.246 1.796-4.246 4.31 0 2.482 1.894 4.31 4.245 4.31 2.319 0 4.245-1.828 4.245-4.31s-1.894-4.31-4.245-4.31m0 6.923c-1.274 0-2.385-1.078-2.385-2.613s1.11-2.612 2.384-2.612 2.384 1.045 2.384 2.612c0 1.535-1.078 2.613-2.384 2.613m9.175-6.923c-2.122 0-4.05 1.861-4.05 4.278 0 2.383 1.928 4.245 4.05 4.245 1.013 0 1.796-.457 2.22-.98h.066v.62c0 1.633-.849 2.515-2.253 2.515-1.143 0-1.829-.817-2.123-1.502l-1.632.685c.457 1.143 1.698 2.515 3.755 2.515 2.188 0 4.016-1.306 4.016-4.441v-7.641H74.6v.685h-.065c-.425-.522-1.209-.98-2.22-.98m.163 6.857c-1.273 0-2.35-1.077-2.35-2.58 0-1.502 1.077-2.612 2.35-2.612s2.254 1.11 2.254 2.612-.98 2.58-2.254 2.58m5.258-11.07h1.861V22.13h-1.861zm6.858 4.213c-2.221 0-4.082 1.73-4.082 4.31 0 2.417 1.828 4.31 4.277 4.31a4.27 4.27 0 0 0 3.592-1.893l-1.469-.98c-.49.718-1.176 1.176-2.123 1.176-.98 0-1.665-.425-2.09-1.307l5.78-2.383-.196-.49c-.359-.947-1.469-2.743-3.69-2.743m-2.221 4.18c-.065-1.666 1.306-2.515 2.253-2.515.751 0 1.404.36 1.6.914zm9.371 4.017 4.31-11.462h1.666l4.311 11.462h-1.633l-1.11-3.102h-4.8l-1.111 3.102zm3.233-4.474h3.82l-1.86-5.16h-.066zm8.556 3.527c-.719-.816-1.078-1.796-1.078-2.971 0-1.143.359-2.123 1.078-2.972.751-.816 1.6-1.208 2.645-1.208.588 0 1.11.13 1.567.359.49.261.849.555 1.111.98h.065l-.065-1.078v-3.625h1.469v11.462h-1.404v-1.077h-.065a3 3 0 0 1-1.111.98c-.49.26-1.012.358-1.567.358-1.045 0-1.927-.391-2.645-1.208m4.637-.914c.49-.523.718-1.208.718-2.057 0-.817-.228-1.503-.718-2.025q-.686-.784-1.764-.784t-1.763.784c-.49.522-.718 1.208-.718 2.025 0 .816.228 1.502.718 2.024q.735.784 1.763.784a2.11 2.11 0 0 0 1.764-.751m8.947 1.404c-.588.457-1.339.718-2.253.718-.784 0-1.47-.196-2.09-.62-.588-.425-1.012-.947-1.274-1.633l1.306-.555c.196.457.458.849.85 1.11a2.05 2.05 0 0 0 1.208.392q.686 0 1.175-.294c.327-.196.458-.457.458-.718 0-.49-.392-.882-1.143-1.11l-1.339-.327c-1.535-.392-2.286-1.11-2.286-2.22 0-.719.294-1.274.882-1.731.587-.425 1.338-.653 2.22-.653.686 0 1.306.163 1.894.49.555.326.947.783 1.176 1.338l-1.307.556a1.84 1.84 0 0 0-.718-.784 2.2 2.2 0 0 0-1.143-.294c-.392 0-.718.098-1.045.294-.294.196-.457.424-.457.718 0 .457.425.784 1.274.947l1.175.294c1.568.392 2.319 1.176 2.319 2.351.032.686-.294 1.274-.882 1.73"/></svg>
